X:1
T:James Gibb editions
T:O Jesu, O Redeemer - Barnby
%%score ( 1 2 ) ( 3 4 )
L:1/8
Q:1/4=96
M:4/4
K:Eb
V:1 treble nm="Midi_74"
V:2 treble 
V:3 bass nm="Midi_74"
V:4 bass 
V:1
"^76. 76. D""^O Jesu, O Redeemer""^Joseph Barnby\n(1838-96)" B2 | c2 G2 B2 E2 | A4 G2 || F2 | %4
 E2 G2 B2 F2 | G6 || G2 | B2 B2 c2 B2 | e4 d2 || c2 | B=A G2 ^F2 A2 | G6 ||[M:4/4] G2 | %13
 A2 c2 e2 A2 | c4 B2 || A2 | G2 A2 B2 E2 | c4 || f4 | e2 d2 e2 G2 | A4 B2 || c2 | EF G2 F2 F2 | %23
 E6 || A4 G4 |] %25
V:2
 B2 | c2 G2 B2 E2 | (C2 D2) E2 || C2 | B,2 E2 D2 D2 | E6 || E2 | F2 F2 E2 F2 | (G2 ^F2) G2 || G2 | %10
 G2 D2 D2 C2 | B,6 ||[M:4/4] B,2 | C2 A,2 C2 E2 | F4 F2 || D2 | E2 E2 E2 E2 | E4 || F4 | %19
 F2 F2 E2 E2 | E4 E2 || E2 | E2 E2 E2 D2 | E6 || E4 E4 |] %25
V:3
 B,2 | C2 G,2 B,2 G,2 | A,4 B,2 || A,2 | G,2 E,2 F,2 B,2 | B,6 || B,2 | B,2 B,2 G,2 B,2 | %8
 (B,2 =A,2) B,2 || E2 | DC B,2 =A,2 ^F,2 | G,6 ||[M:4/4] B,2 | A,2 A,2 A,2 C2 | (A,2 F,2) B,2 || %15
 B,2 | B,2 A,2 G,2 _D2 | C4 || C4 | B,2 B,2 B,2 B,2 | A,4 G,2 || F,2 | G,2 B,2 A,2 A,2 | G,6 || %24
 C4 B,4 |] %25
V:4
 B,2 | C2 G,2 B,2 C,2 | F,,4 G,,2 || A,,2 | B,,2 B,,2 B,,2 B,,2 | E,6 || E,2 | D,2 D,2 E,2 D,2 | %8
 C,4 B,,2 || C,2 | D,2 D,2 D,2 D,2 | G,6 ||[M:4/4] G,2 | F,2 F,2 E,2 E,2 | D,4 D,2 || B,,2 | %16
 E,2 F,2 G,2 E,2 | A,4 || A,4 | A,2 A,2 G,2 _D,2 | C,4 B,,2 || A,,2 | B,,2 B,,2 B,,2 B,,2 | E,6 || %24
 A,,4 E,4 |] %25

